X: 22087
T: Knocknagree, The
R: polka
M: 2/4
K: Gmajor
Bd ed|Bd G2|Bd gb|a/b/a/g/ ed|
B>d ed|Bd G2|dB GB|1 A/B/A G2:|2 A/B/A GB||
|:d2 GB/d/|ed e/f/g/e/|d>g eB|dB AB|
d2 GB/d/|ed e/f/g/e/|dB A/B/c/A/|1 BG GB:|2 BG G2||

